X: 305747
M: 6/8
L: 1/8
K: C
g |\
g^fg e2g | =fef def | edc ABc | d2c B2g |\
g^fg e2g | =fef def | edc AdB | ccc c2 H|]
d |\
dcB dgb | d'c'b c'2c | cBA c=fa | c'ba b2g |\
g^fg ede | g^fg dBd | g^fg dec | BcA "^D.C."G2 |]



